public/images/info-bar-advantages__image2.svg

<svg width="107" height="108" viewBox="0 0 107 108" fill="none" xmlns="http://www.w3.org/2000/svg">
<g clip-path="url(#clip0)">
<path d="M91.3605 8.28634C98.4386 12.3844 102.834 20.0046 102.834 28.1741C102.836 31.2254 102.248 34.191 101.085 36.9873C100.705 37.8968 101.135 38.9401 102.046 39.3181C102.269 39.4126 102.501 39.4554 102.731 39.4554C103.43 39.4554 104.094 39.0435 104.375 38.3587C105.722 35.1255 106.403 31.6997 106.401 28.1741C106.401 18.7385 101.322 9.93414 93.1474 5.20118C92.2985 4.70363 91.2054 4.99609 90.7114 5.85031C90.2156 6.70096 90.5063 7.79414 91.3605 8.28634Z" fill="black"/>
<path d="M79.8611 54.2427C79.8629 54.2427 79.8647 54.2427 79.8665 54.2427C83.9753 54.2427 87.9146 53.5026 91.574 51.7014C92.4586 51.2663 92.8206 50.3711 92.3872 49.4883C91.9539 48.6056 90.8785 48.1294 89.9994 48.5592C86.8322 50.1178 83.4242 50.676 79.8665 50.676C79.8647 50.676 79.8629 50.676 79.8611 50.676C72.1803 50.676 65.038 47.0095 60.7563 40.5806C60.2106 39.7584 59.0995 39.7085 58.2846 40.256C57.4642 40.8035 57.2413 41.7932 57.787 42.6136C62.7322 50.0411 70.9819 54.2427 79.8611 54.2427Z" fill="black"/>
<path d="M97.7051 42.6458C97.0096 43.5001 96.2464 44.3115 95.4385 45.0569C94.7127 45.7257 94.6681 46.8545 95.3351 47.5768C95.6864 47.9584 96.1643 48.151 96.6458 48.151C97.0792 48.151 97.5125 47.9941 97.8567 47.6784C98.7912 46.8153 99.6722 45.8808 100.471 44.8946C101.092 44.1314 100.978 43.0079 100.213 42.3873C99.4492 41.7649 98.3257 41.8808 97.7051 42.6458Z" fill="black"/>
<path d="M74.0459 37.3081C74.4311 37.3081 74.8216 37.1833 75.1498 36.9265C81.5715 31.8547 85.2541 24.2595 85.2541 16.0865C85.2541 12.4128 84.4784 8.78014 82.9928 5.41855C83.7508 5.5202 84.5033 5.66109 85.2434 5.83942C86.2046 6.06769 87.1623 5.4774 87.3923 4.51975C87.6224 3.5621 87.0303 2.60088 86.0727 2.37083C84.8404 2.07658 83.5724 1.86615 82.3063 1.75023C81.8747 1.70565 81.452 1.83227 81.1186 2.06945C80.5532 1.5826 79.7204 1.49165 79.0428 1.8929C78.1975 2.39758 77.9228 3.49255 78.4275 4.33963C80.5604 7.9063 81.6874 11.967 81.6874 16.0865C81.6874 23.1609 78.4989 29.7361 72.9384 34.1249C72.1662 34.7366 72.0343 35.8565 72.6442 36.6305C72.9955 37.0745 73.518 37.3081 74.0459 37.3081Z" fill="black"/>
<path d="M64.4963 41.943C64.6336 41.943 64.7727 41.927 64.9118 41.8931C66.1495 41.5971 67.3746 41.2101 68.5534 40.7393C69.4682 40.3737 69.9141 39.3376 69.5485 38.4209C69.1829 37.5061 68.145 37.062 67.2302 37.4258C66.2119 37.8324 65.1544 38.1677 64.0826 38.4245C63.1249 38.6546 62.5346 39.6158 62.7629 40.5734C62.9591 41.392 63.6902 41.943 64.4963 41.943Z" fill="black"/>
<path d="M25.4267 48.0886L29.9903 43.6427C30.4771 43.1702 30.6501 42.4604 30.4415 41.8166C30.2292 41.1693 29.6728 40.7003 29.0005 40.6022L22.6964 39.6855L19.877 33.9717C19.2778 32.7519 17.2787 32.7519 16.6795 33.9717L13.86 39.6855L7.55595 40.6022C6.88363 40.7003 6.32545 41.171 6.11501 41.8166C5.90636 42.4604 6.08113 43.1684 6.5662 43.6427L11.1297 48.0886L10.0526 54.3695C9.9367 55.0382 10.2113 55.7141 10.7606 56.1136C11.3116 56.5131 12.0428 56.5666 12.6384 56.2491L18.2791 53.2852L23.9198 56.2491C24.1802 56.3864 24.4655 56.4542 24.7491 56.4542C25.1182 56.4542 25.4874 56.3401 25.7959 56.1136C26.3434 55.7141 26.618 55.0382 26.5039 54.3695L25.4267 48.0886ZM22.2667 46.1893C21.8476 46.5995 21.655 47.1898 21.7548 47.7676L22.3808 51.4109L19.1084 49.6918C18.848 49.5545 18.5645 49.4867 18.2791 49.4867C17.9938 49.4867 17.7102 49.5545 17.4499 49.6918L14.1775 51.4109L14.7998 47.7676C14.8997 47.1898 14.7071 46.5977 14.288 46.1893L11.6433 43.6106L15.2992 43.0792C15.8805 42.9954 16.3817 42.6298 16.642 42.1037L18.2773 38.7903L19.9127 42.1037C20.173 42.6298 20.6741 42.9954 21.2555 43.0792L24.9113 43.6106L22.2667 46.1893Z" fill="black"/>
<path d="M35.096 15.013C35.8004 15.6996 36.9328 15.6871 37.6176 14.9809C38.3042 14.2765 38.2917 13.1459 37.5855 12.4593L36.6119 11.5106L40.2677 10.9791C40.849 10.8953 41.3502 10.5297 41.6105 10.0036L43.2458 6.6902L44.8812 10.0036C45.1415 10.5297 45.6426 10.8953 46.224 10.9791L49.8781 11.5088L47.2334 14.0875C46.8143 14.4976 46.6217 15.0879 46.7216 15.6657L47.3475 19.3091L44.8544 18.0001C43.9824 17.5418 42.9052 17.8753 42.4469 18.7491C41.9868 19.6212 42.3239 20.6983 43.1959 21.1566L48.8865 24.149C49.1469 24.2864 49.4322 24.3541 49.7158 24.3541C50.0849 24.3541 50.4541 24.24 50.7644 24.0135C51.3119 23.614 51.5865 22.9382 51.4724 22.2694L50.3952 15.9885L54.9588 11.5427C55.4456 11.0701 55.6186 10.3603 55.41 9.71652C55.1977 9.06917 54.6413 8.60015 53.969 8.50207L47.6649 7.58544L44.8455 1.87164C44.2463 0.651837 42.2472 0.651837 41.648 1.87164L38.8285 7.58544L32.5245 8.50207C31.8521 8.60015 31.294 9.07095 31.0835 9.71652C30.8749 10.3603 31.0496 11.0683 31.5347 11.5427L35.096 15.013Z" fill="black"/>
<path d="M37.6067 24.1473L38.5394 23.6569C39.4097 23.1985 39.7467 22.1196 39.2866 21.2476C39.185 21.055 39.0512 20.8855 38.8961 20.7482L38.9567 20.3951C39.1243 19.425 38.4734 18.503 37.5015 18.3372C36.5367 18.1749 35.6094 18.8222 35.4436 19.7924L35.0191 22.2694C34.9032 22.9382 35.1778 23.6141 35.7271 24.0153C36.0392 24.24 36.4065 24.3541 36.7757 24.3541C37.0592 24.3541 37.3446 24.2864 37.6067 24.1473Z" fill="black"/>
<path d="M48.5674 50.9865C47.5188 50.2749 46.4238 49.6222 45.3128 49.0534C44.4407 48.6022 43.3618 48.9499 42.9124 49.8273C42.463 50.7047 42.809 51.7783 43.6864 52.2277C44.6672 52.7306 45.632 53.3066 46.5611 53.9379C46.8679 54.1466 47.2192 54.2464 47.5634 54.2464C48.134 54.2464 48.6958 53.9736 49.04 53.4653C49.5928 52.6503 49.3824 51.5411 48.5674 50.9865Z" fill="black"/>
<path d="M64.173 104.039L29.851 103.876C29.4247 103.844 29.0003 103.808 28.583 103.76C27.5968 103.643 26.7176 104.352 26.6035 105.331C26.4894 106.31 27.1884 107.215 28.1657 107.329C28.6347 107.386 29.1109 107.464 29.7119 107.504L64.1552 107.742C64.1587 107.742 64.1605 107.742 64.1641 107.742C65.1449 107.742 65.9438 106.881 65.9474 105.899C65.9528 104.914 65.1592 104.044 64.173 104.039Z" fill="black"/>
<path d="M90.0562 82.776C90.0562 81.7898 89.2591 80.9927 88.2729 80.9927H84.6937C83.7076 80.9927 82.9104 81.7898 82.9104 82.776C82.9104 83.7622 83.7076 84.5594 84.6937 84.5594H88.2729C89.2591 84.5594 90.0562 83.7622 90.0562 82.776Z" fill="black"/>
<path d="M99.5868 82.3018C98.6898 81.881 97.6322 82.2644 97.2114 83.1525C96.7923 84.0424 97.1721 85.107 98.062 85.5279C101.425 87.1186 103.433 90.4249 103.433 94.3714C103.433 100.055 99.3068 104.183 93.6019 104.183C93.4789 104.183 92.2715 104.183 90.292 104.173L89.2203 104.176C89.2167 104.176 89.2149 104.176 89.2113 104.176C88.2305 104.176 87.4334 104.959 87.428 105.942C87.4227 106.926 88.2162 107.72 89.2024 107.725L90.2742 107.73C92.4124 107.741 93.6661 107.746 93.6251 107.746C101.249 107.746 107 101.995 107 94.3697C107 89.009 104.229 84.4989 99.5868 82.3018Z" fill="black"/>
<path d="M84.2872 74.1432C85.227 73.8507 85.7531 72.8503 85.4606 71.9105C83.1298 64.4098 77.2056 58.7637 69.9956 57.1748C64.9737 56.0656 60.0909 56.4722 55.9661 58.3286C55.3901 58.0397 54.6785 58.0665 54.1221 58.4677C53.3214 59.0402 53.1359 60.1547 53.7084 60.9555C53.8368 61.1374 53.9634 61.321 54.0864 61.5065C54.5965 62.268 55.6041 62.5212 56.4155 62.0825C60.057 60.1191 64.5332 59.6215 69.2323 60.6576C75.1904 61.9702 80.1053 66.6889 82.0562 72.968C82.2934 73.733 82.9978 74.2217 83.7593 74.2217C83.9323 74.2217 84.1124 74.1949 84.2872 74.1432Z" fill="black"/>
<path d="M34.4972 45.8273C34.0692 45.7809 33.6412 45.747 33.2078 45.7203C32.2395 45.6775 31.3799 46.4087 31.3211 47.3931C31.2604 48.3757 32.0094 49.221 32.9938 49.2798C33.3755 49.303 33.7517 49.3351 34.1262 49.3726C34.1887 49.3797 34.2511 49.3833 34.3117 49.3833C35.2141 49.3833 35.9898 48.7038 36.0861 47.7854C36.1878 46.8063 35.478 45.9289 34.4972 45.8273Z" fill="black"/>
<path d="M3.56667 75.6426C3.56667 70.2302 5.12352 65.0211 8.06958 60.5788C8.61528 59.7585 8.39058 58.651 7.57025 58.1071C6.74813 57.5578 5.64068 57.7843 5.09855 58.6064C1.76193 63.6354 0 69.5258 0 75.6426C0 82.3908 2.12573 88.7804 6.14893 94.1233C6.49847 94.587 7.03347 94.8331 7.5756 94.8331C7.94832 94.8331 8.32638 94.7154 8.64738 94.4728C9.43383 93.8808 9.59077 92.7626 8.9987 91.9762C5.4463 87.2593 3.56667 81.6114 3.56667 75.6426Z" fill="black"/>
<path d="M78.4845 104.151L74.9018 104.178C74.9 104.178 74.8965 104.178 74.8947 104.178C73.9121 104.178 73.1149 104.945 73.1113 105.928C73.1078 106.91 73.9014 107.688 74.8875 107.691L78.4631 107.743C78.4667 107.743 78.4703 107.743 78.4738 107.743C79.4547 107.743 80.2518 106.939 80.2572 105.958C80.2625 104.973 79.4707 104.157 78.4845 104.151Z" fill="black"/>
<path d="M19.0407 100.821C18.0617 100.303 17.1076 99.7158 16.2035 99.0756C15.3956 98.5049 14.2846 98.6975 13.7157 99.5C13.145 100.306 13.3376 101.419 14.1401 101.988C15.1709 102.715 16.257 103.384 17.3715 103.974C17.6373 104.115 17.9226 104.181 18.2044 104.181C18.8428 104.181 19.4616 103.837 19.7826 103.233C20.2445 102.362 19.911 101.283 19.0407 100.821Z" fill="black"/>
</g>
<defs>
<clipPath id="clip0">
<rect width="107" height="107" fill="white" transform="translate(0 0.851562)"/>
</clipPath>
</defs>
</svg>

<svg width="107" height="108" fill="none" xmlns="http://www.w3.org/2000/svg"><g clip-path="url(#clip0)" fill="#000"><path d="M91.36 8.286c7.079 4.098 11.474 11.719 11.474 19.888a22.793 22.793 0 01-1.749 8.813 1.78 1.78 0 001.646 2.468c.699 0 1.363-.411 1.644-1.096a26.302 26.302 0 002.026-10.185c0-9.436-5.079-18.24-13.254-22.973a1.778 1.778 0 00-2.436.65 1.779 1.779 0 00.65 2.435zM79.861 54.243h.005c4.11 0 8.049-.74 11.708-2.542.885-.435 1.247-1.33.813-2.213-.433-.882-1.508-1.359-2.388-.929-3.167 1.559-6.575 2.117-10.132 2.117h-.006c-7.68 0-14.823-3.666-19.105-10.095-.545-.823-1.657-.873-2.471-.325-.82.547-1.044 1.537-.498 2.358 4.945 7.427 13.195 11.629 22.074 11.629zm17.844-11.597a23.356 23.356 0 01-2.266 2.41 1.782 1.782 0 102.418 2.622 26.572 26.572 0 002.614-2.783 1.781 1.781 0 00-.258-2.508 1.78 1.78 0 00-2.508.259zm-23.659-5.338c.385 0 .776-.125 1.104-.382 6.421-5.071 10.104-12.667 10.104-20.84 0-3.673-.776-7.306-2.261-10.667.758.101 1.51.242 2.25.42a1.783 1.783 0 10.83-3.468 26.801 26.801 0 00-3.767-.62 1.75 1.75 0 00-1.187.318 1.785 1.785 0 00-2.692 2.27 22.9 22.9 0 013.26 11.748c0 7.074-3.188 13.65-8.749 18.038a1.785 1.785 0 001.108 3.183z"/><path d="M64.496 41.943c.138 0 .277-.016.416-.05a26.41 26.41 0 003.641-1.154 1.783 1.783 0 10-1.323-3.313 22.896 22.896 0 01-3.147.998 1.784 1.784 0 00.413 3.519zm-39.069 6.146l4.563-4.446a1.781 1.781 0 00-.99-3.04l-6.304-.918-2.819-5.713c-.6-1.22-2.598-1.22-3.197 0l-2.82 5.713-6.304.917a1.787 1.787 0 00-1.441 1.215 1.785 1.785 0 00.451 1.826l4.564 4.446-1.077 6.28a1.78 1.78 0 002.585 1.88l5.641-2.964 5.64 2.964a1.778 1.778 0 001.877-.135 1.79 1.79 0 00.708-1.744l-1.077-6.281zm-3.16-1.9c-.42.41-.612 1-.512 1.579l.626 3.643-3.273-1.72a1.773 1.773 0 00-1.658 0l-3.272 1.72.622-3.643c.1-.578-.093-1.17-.512-1.579l-2.645-2.578 3.656-.532a1.783 1.783 0 001.343-.975l1.635-3.314 1.636 3.314c.26.526.761.891 1.343.975l3.655.532-2.644 2.578zm12.829-31.176a1.783 1.783 0 102.49-2.554l-.974-.948 3.656-.532a1.783 1.783 0 001.343-.975l1.635-3.314 1.635 3.314c.26.526.762.891 1.343.975l3.654.53-2.645 2.579c-.419.41-.611 1-.511 1.578l.625 3.643L44.854 18a1.78 1.78 0 00-2.407.75 1.78 1.78 0 00.749 2.407l5.69 2.992a1.777 1.777 0 001.878-.136 1.786 1.786 0 00.708-1.744l-1.077-6.28 4.564-4.446a1.781 1.781 0 00-.99-3.04l-6.304-.918-2.82-5.713c-.599-1.22-2.598-1.22-3.197 0l-2.82 5.713-6.303.917a1.787 1.787 0 00-1.441 1.215 1.786 1.786 0 00.45 1.826l3.562 3.47zm2.511 9.134l.932-.49a1.784 1.784 0 00.357-2.909l.06-.353a1.78 1.78 0 00-1.455-2.058 1.788 1.788 0 00-2.057 1.455l-.425 2.477a1.785 1.785 0 00.708 1.746 1.793 1.793 0 001.88.132zm10.96 26.839a30.916 30.916 0 00-3.254-1.933 1.782 1.782 0 00-2.4.774 1.782 1.782 0 00.773 2.4 27.68 27.68 0 012.875 1.71 1.78 1.78 0 001.002.31 1.786 1.786 0 001.004-3.26zm15.606 53.053l-34.322-.163a32.26 32.26 0 01-1.268-.116 1.783 1.783 0 00-1.98 1.571c-.114.979.585 1.884 1.563 1.998.469.057.945.135 1.546.175l34.443.238h.01c.98 0 1.779-.861 1.782-1.843.006-.985-.788-1.855-1.774-1.86zm25.883-21.263c0-.986-.797-1.783-1.783-1.783h-3.58a1.782 1.782 0 10.001 3.566h3.579c.986 0 1.783-.797 1.783-1.783zm9.531-.474a1.785 1.785 0 00-1.525 3.226c3.363 1.59 5.371 4.897 5.371 8.843 0 5.684-4.126 9.812-9.831 9.812-.123 0-1.33 0-3.31-.01l-1.072.003h-.009a1.775 1.775 0 10-.009 3.549l1.072.005 3.351.016c7.624 0 13.375-5.751 13.375-13.376 0-5.361-2.771-9.871-7.413-12.068zm-15.3-8.159a1.784 1.784 0 001.174-2.233c-2.331-7.5-8.255-13.146-15.465-14.735-5.022-1.11-9.905-.703-14.03 1.154a1.782 1.782 0 00-2.258 2.627c.129.181.255.365.378.55a1.783 1.783 0 002.33.577c3.641-1.964 8.117-2.462 12.816-1.425 5.958 1.312 10.873 6.03 12.824 12.31a1.782 1.782 0 002.231 1.175zm-49.79-28.316c-.428-.046-.856-.08-1.29-.107-.968-.042-1.827.689-1.886 1.673a1.78 1.78 0 001.673 1.887c.382.023.758.055 1.132.093a1.785 1.785 0 001.96-1.587 1.782 1.782 0 00-1.589-1.959zM3.567 75.643c0-5.413 1.557-10.622 4.503-15.064a1.782 1.782 0 00-.5-2.472 1.777 1.777 0 00-2.471.5C1.762 63.634 0 69.525 0 75.642c0 6.748 2.126 13.137 6.149 18.48a1.783 1.783 0 002.85-2.147C5.446 87.26 3.567 81.611 3.567 75.643zm74.917 28.508l-3.582.027h-.007c-.983 0-1.78.767-1.784 1.75a1.76 1.76 0 001.776 1.763l3.576.052h.01c.982 0 1.779-.804 1.784-1.785a1.794 1.794 0 00-1.773-1.807zm-59.444-3.33a25.833 25.833 0 01-2.837-1.745 1.785 1.785 0 10-2.063 2.912 29.9 29.9 0 003.232 1.986 1.786 1.786 0 002.411-.741 1.785 1.785 0 00-.742-2.412z"/></g><defs><clipPath id="clip0"><path fill="#fff" transform="translate(0 .852)" d="M0 0h107v107H0z"/></clipPath></defs></svg>
